web/icons/aws/internet.svg

<?xml version="1.0" encoding="UTF-8" standalone="no"?>
<svg
   xmlns:dc="http://purl.org/dc/elements/1.1/"
   xmlns:cc="http://creativecommons.org/ns#"
   xmlns:rdf="http://www.w3.org/1999/02/22-rdf-syntax-ns#"
   xmlns:svg="http://www.w3.org/2000/svg"
   xmlns="http://www.w3.org/2000/svg"
   xmlns:xlink="http://www.w3.org/1999/xlink"
   xmlns:sodipodi="http://sodipodi.sourceforge.net/DTD/sodipodi-0.dtd"
   xmlns:inkscape="http://www.inkscape.org/namespaces/inkscape"
   version="1.1"
   preserveAspectRatio="xMidYMid meet"
   viewBox="0 0 564.6002 338.1032"
   width="44.10939"
   height="26.414312"
   id="svg84"
   sodipodi:docname="internet.svg"
   inkscape:version="0.92.2 5c3e80d, 2017-08-06">
  <metadata
     id="metadata88">
    <rdf:RDF>
      <cc:Work
         rdf:about="">
        <dc:format>image/svg+xml</dc:format>
        <dc:type
           rdf:resource="http://purl.org/dc/dcmitype/StillImage" />
        <dc:title></dc:title>
      </cc:Work>
    </rdf:RDF>
  </metadata>
  <sodipodi:namedview
     pagecolor="#ffffff"
     bordercolor="#666666"
     borderopacity="1"
     objecttolerance="10"
     gridtolerance="10"
     guidetolerance="10"
     inkscape:pageopacity="0"
     inkscape:pageshadow="2"
     inkscape:window-width="1166"
     inkscape:window-height="772"
     id="namedview86"
     showgrid="false"
     fit-margin-top="0"
     fit-margin-left="0"
     fit-margin-right="0"
     fit-margin-bottom="0"
     inkscape:zoom="13.2"
     inkscape:cx="6.8572604"
     inkscape:cy="2.125"
     inkscape:window-x="0"
     inkscape:window-y="0"
     inkscape:window-maximized="0"
     inkscape:current-layer="svg84" />
  <defs
     id="defs70">
    <path
       d="m 170.99,346.7 v -22.65 c 184.61,0 278.91,0 282.9,0 57.25,0 85.03,-24 85.03,-73.25 0,-42.12 -26.23,-68.5 -77.97,-78.46 -5.32,-1.02 -9.25,-5.3 -9.58,-10.42 -2.51,-40.87 -27.66,-55.48 -47.91,-55.48 -14.18,0.13 -27.48,6.55 -35.93,17.32 -4.03,4.96 -11.55,5.89 -16.79,2.08 -1.78,-1.29 -3.14,-3.03 -3.93,-5.02 C 339.52,101.09 327.56,83.2 311.84,68.51 274.9,33.46 219.08,23.28 170.99,42.81 c -43.55,18.85 -72.17,59.26 -74.02,104.5 0.03,4.62 0.35,9.24 0.96,13.82 0.79,5.7 -3.07,11.06 -8.98,12.45 -23.95,5.66 -65.04,22.65 -65.04,76.09 0,1.92 0,3.62 0,5.43 2.4,39.97 38.09,68.73 84.92,68.73 3.99,0 24.95,0.07 62.89,0.22 v 22.42 c -37.94,0 -58.9,0 -62.89,0 -59.88,0 -105.64,-37.7 -108.75,-89.67 0,-2.72 0,-4.87 0,-7.13 -1.85,-43.99 28.47,-83.42 73.3,-95.34 0,-2.37 0,-4.86 0,-7.24 C 75.14,69.5 143.1,7.96 225.17,9.63 c 38.94,0.79 76,15.99 103.2,42.35 14.06,13.02 25.46,28.37 33.65,45.29 11.85,-8.63 26.37,-13.33 41.32,-13.36 31.74,0 65.04,21.17 71.87,67.93 57.01,13.7 88.39,48.46 88.39,98.85 -0.72,61.93 -39.41,96.01 -109.71,96.01 -7.99,0 -102.29,0 -282.9,0 z"
       id="f3Yqa0HIea"
       inkscape:connector-curvature="0" />
  </defs>
  <g
     id="g82"
     transform="translate(0.50020531,-9.0968086)">
    <g
       id="g80">
      <g
         id="g78">
        <use
           xlink:href="#f3Yqa0HIea"
           id="use72"
           style="opacity:1;fill:#232f3e;fill-opacity:1"
           x="0"
           y="0"
           width="100%"
           height="100%" />
        <g
           id="g76">
          <use
             xlink:href="#f3Yqa0HIea"
             id="use74"
             style="opacity:1;fill-opacity:0;stroke:#000000;stroke-width:1;stroke-opacity:0"
             x="0"
             y="0"
             width="100%"
             height="100%" />
        </g>
      </g>
    </g>
  </g>
  <path
     style="fill:#e6e6e6;stroke-width:0.07575758"
     d="M 7.273927,24.463532 C 5.626607,24.228401 3.9102535,23.275593 3.0338501,22.109719 2.5873116,21.515692 2.3761314,21.102609 2.1487041,20.378311 1.9064449,19.606777 1.9043235,17.994928 2.1444038,17.110971 2.6875719,15.111068 4.152223,13.739553 6.5089241,13.023989 7.4587351,12.735598 7.7846731,12.439753 7.6972835,11.945346 7.6381119,11.610584 7.7070038,9.988029 7.8010819,9.5006684 8.3398013,6.7098912 10.267881,4.2222243 12.901879,2.919464 c 1.415704,-0.7001992 2.70975,-0.9822967 4.485684,-0.9778635 1.441357,0.0036 2.344123,0.158827 3.557324,0.6116753 0.921951,0.3441343 1.243152,0.5082719 2.10926,1.0778592 1.633302,1.0741234 3.081442,2.8302336 3.877964,4.7026742 0.322315,0.7576891 0.579482,0.9858062 1.111344,0.9858062 0.30429,0 0.375927,-0.042163 0.904775,-0.5325171 0.315877,-0.2928843 0.741103,-0.617032 0.944948,-0.7203281 1.477017,-0.7484612 3.1248,-0.4561481 4.20571,0.746084 0.60445,0.6722938 0.958522,1.5288908 1.128802,2.7308838 0.14747,1.040974 0.17955,1.071118 1.494786,1.404574 1.770126,0.448785 2.913777,1.035053 3.854805,1.976081 1.031776,1.031776 1.508263,2.30731 1.506257,4.03218 -0.0032,2.729569 -1.196236,4.495428 -3.51737,5.20609 -1.29242,0.395701 -0.794254,0.384297 -16.367999,0.374683 -7.958333,-0.0049 -14.674242,-0.03813 -14.924242,-0.07381 z"
     id="path3781"
     inkscape:connector-curvature="0"
     transform="scale(12.8)" />
</svg>

<?xml version="1.0" encoding="UTF-8" standalone="no"?>
<!DOCTYPE svg PUBLIC "-//W3C//DTD SVG 1.1//EN" "http://www.w3.org/Graphics/SVG/1.1/DTD/svg11.dtd">
<svg version="1.1" xmlns="http://www.w3.org/2000/svg" xmlns:xlink="http://www.w3.org/1999/xlink" preserveAspectRatio="xMidYMid meet" viewBox="0 0 640 640" width="50" height="50"><defs><path d="M170.99 346.7L170.99 324.05C355.6 324.05 449.9 324.05 453.89 324.05C511.14 324.05 538.92 300.05 538.92 250.8C538.92 208.68 512.69 182.3 460.95 172.34C455.63 171.32 451.7 167.04 451.37 161.92C448.86 121.05 423.71 106.44 403.46 106.44C389.28 106.57 375.98 112.99 367.53 123.76C363.5 128.72 355.98 129.65 350.74 125.84C348.96 124.55 347.6 122.81 346.81 120.82C339.52 101.09 327.56 83.2 311.84 68.51C274.9 33.46 219.08 23.28 170.99 42.81C127.44 61.66 98.82 102.07 96.97 147.31C97 151.93 97.32 156.55 97.93 161.13C98.72 166.83 94.86 172.19 88.95 173.58C65 179.24 23.91 196.23 23.91 249.67C23.91 251.59 23.91 253.29 23.91 255.1C26.31 295.07 62 323.83 108.83 323.83C112.82 323.83 133.78 323.9 171.72 324.05L171.72 346.47C133.78 346.47 112.82 346.47 108.83 346.47C48.95 346.47 3.19 308.77 0.08 256.8C0.08 254.08 0.08 251.93 0.08 249.67C-1.77 205.68 28.55 166.25 73.38 154.33C73.38 151.96 73.38 149.47 73.38 147.09C75.14 69.5 143.1 7.96 225.17 9.63C264.11 10.42 301.17 25.62 328.37 51.98C342.43 65 353.83 80.35 362.02 97.27C373.87 88.64 388.39 83.94 403.34 83.91C435.08 83.91 468.38 105.08 475.21 151.84C532.22 165.54 563.6 200.3 563.6 250.69C562.88 312.62 524.19 346.7 453.89 346.7C445.9 346.7 351.6 346.7 170.99 346.7Z" id="f3Yqa0HIea"></path></defs><g><g><g><use xlink:href="#f3Yqa0HIea" opacity="1" fill="#232f3e" fill-opacity="1"></use><g><use xlink:href="#f3Yqa0HIea" opacity="1" fill-opacity="0" stroke="#000000" stroke-width="1" stroke-opacity="0"></use></g></g></g></g></svg>
